X:24
T:Crossing to Ireland
T:An t-aiseadh do dh' \'Eireann
R:Slow Air or Waltz
S:Simon Fraser Collection
N:No.95
O:Scottish
M:12/8
L:1/8
Q:3/8=70
K:F Minor
F/4=E/4F/4G/4|A<FF C<FF A,<FF c>BA|G<EE B,<EE G,<EE B>AG|
A<FF C<FF A,<FF c>BG|AA/B/c/=d/ e>dc BAG F2:|
f/g/|a<ff c<ff AFF F2 b/a/|gee Bee GEE E2 f/4=e/4f/4g/4|
a<ff c<ff A<Fa g2f|AA/B/c/=d e>dc BAG Fz c'/4b/4|
aff cff FAc f/g/a/b/ c'|
gee Bee EGB e/f/g/a/ b|a2 g/f/ g2 f/=e/ f_ec BAG|
AA/B/c/=d/ e>dc BAG F2||

